src/assets/icons/real-estate/roller.svg

<svg width="48" height="48" viewBox="0 0 48 48" fill="none" xmlns="http://www.w3.org/2000/svg">
<rect width="48" height="48" fill="white"/>
<path d="M22.7899 35.5833L21.2664 35.5954L21.2543 30.1229L21.9997 30.118C22.0106 30.118 22.0191 30.1229 22.0287 30.1229C22.0396 30.1229 22.0481 30.118 22.059 30.118L22.7899 30.112V35.5833ZM31.6648 14.6949C31.6648 15.3558 31.1263 15.8923 30.4656 15.8923H13.5907C12.93 15.8923 12.3915 15.3558 12.3915 14.6949V12.6129C12.3915 11.9532 12.93 11.4167 13.5907 11.4167H30.4656C31.1263 11.4167 31.6648 11.9532 31.6648 12.6129V14.6949ZM37.7032 12.938H34.085V12.6129C34.085 10.6216 32.461 9 30.4656 9H13.5907C11.7138 9 10.1842 10.4391 10.0064 12.2673C9.79337 12.0776 9.51868 11.9532 9.2101 11.9532C8.54213 11.9532 8 12.4945 8 13.1615V14.1463C8 14.8145 8.54213 15.3546 9.2101 15.3546C9.51868 15.3546 9.79337 15.2302 10.0064 15.0405C10.1842 16.8699 11.7138 18.309 13.5907 18.309H30.4656C32.2348 18.309 33.7062 17.0318 34.0185 15.3546H37.5798V19.0968L22.589 22.6191C21.5459 22.8644 20.8186 23.7827 20.8186 24.8521V27.7509C19.6981 27.9563 18.8462 28.9339 18.8462 30.112V35.5954C18.8462 36.921 19.9268 38 21.2543 38H22.802C24.1307 38 25.2101 36.921 25.2101 35.5954V30.112C25.2101 28.9351 24.3582 27.9563 23.2388 27.7509V24.9488L38.2308 21.4277C39.2727 21.1824 40 20.2629 40 19.1947V15.2314C40 13.9662 38.9702 12.938 37.7032 12.938Z" fill="#253238"/>
</svg>

<svg width="48" height="48" viewBox="0 0 48 48" fill="none" xmlns="http://www.w3.org/2000/svg"><path d="M22.79 35.583l-1.524.012-.012-5.472.746-.005c.01 0 .02.005.029.005.01 0 .02-.005.03-.005l.73-.006v5.471zm8.875-20.888a1.2 1.2 0 01-1.2 1.197H13.592a1.2 1.2 0 01-1.2-1.197v-2.082a1.2 1.2 0 011.2-1.196h16.875c.66 0 1.199.536 1.199 1.196v2.082zm6.038-1.757h-3.618v-.325A3.621 3.621 0 0030.465 9H13.592c-1.877 0-3.407 1.44-3.585 3.267a1.194 1.194 0 00-.796-.314A1.21 1.21 0 008 13.162v.984c0 .668.542 1.209 1.21 1.209.309 0 .583-.125.796-.315.178 1.83 1.708 3.269 3.585 3.269h16.875a3.62 3.62 0 003.553-2.954h3.56v3.742l-14.99 3.522a2.285 2.285 0 00-1.77 2.233v2.899a2.405 2.405 0 00-1.973 2.361v5.483A2.41 2.41 0 0021.254 38h1.548a2.409 2.409 0 002.408-2.405v-5.483a2.406 2.406 0 00-1.971-2.361v-2.802l14.992-3.521A2.287 2.287 0 0040 19.195V15.23a2.297 2.297 0 00-2.297-2.293z" fill="#253238"/></svg>
